src/assets/outline/Bezier.svg

<svg width="24" height="24" viewBox="0 0 24 24"  xmlns="http://www.w3.org/2000/svg">
<path d="M3 9.75C1.48 9.75 0.25 8.52 0.25 7C0.25 5.48 1.48 4.25 3 4.25C4.52 4.25 5.75 5.48 5.75 7C5.75 8.52 4.52 9.75 3 9.75ZM3 5.75C2.31 5.75 1.75 6.31 1.75 7C1.75 7.69 2.31 8.25 3 8.25C3.69 8.25 4.25 7.69 4.25 7C4.25 6.31 3.69 5.75 3 5.75Z" />
<path d="M21 9.75C19.48 9.75 18.25 8.52 18.25 7C18.25 5.48 19.48 4.25 21 4.25C22.52 4.25 23.75 5.48 23.75 7C23.75 8.52 22.52 9.75 21 9.75ZM21 5.75C20.31 5.75 19.75 6.31 19.75 7C19.75 7.69 20.31 8.25 21 8.25C21.69 8.25 22.25 7.69 22.25 7C22.25 6.31 21.69 5.75 21 5.75Z" />
<path d="M19 7.75H15C14.59 7.75 14.25 7.41 14.25 7C14.25 6.59 14.59 6.25 15 6.25H19C19.41 6.25 19.75 6.59 19.75 7C19.75 7.41 19.41 7.75 19 7.75Z" />
<path d="M9 7.75H5C4.59 7.75 4.25 7.41 4.25 7C4.25 6.59 4.59 6.25 5 6.25H9C9.41 6.25 9.75 6.59 9.75 7C9.75 7.41 9.41 7.75 9 7.75Z" />
<path d="M6 20.75H4C2.76 20.75 1.75 19.74 1.75 18.5V16.5C1.75 15.26 2.76 14.25 4 14.25H6C7.24 14.25 8.25 15.26 8.25 16.5V18.5C8.25 19.4 7.72 20.2 6.9 20.55C6.63 20.68 6.32 20.75 6 20.75ZM4 15.75C3.59 15.75 3.25 16.09 3.25 16.5V18.5C3.25 18.91 3.59 19.25 4 19.25H6C6.1 19.25 6.19 19.2301 6.29 19.1801C6.58 19.0601 6.75 18.79 6.75 18.5V16.5C6.75 16.09 6.41 15.75 6 15.75H4Z" />
<path d="M20 20.75H18C17.68 20.75 17.37 20.68 17.07 20.54C16.28 20.21 15.75 19.4 15.75 18.5V16.5C15.75 15.26 16.76 14.25 18 14.25H20C21.24 14.25 22.25 15.26 22.25 16.5V18.5C22.25 19.74 21.24 20.75 20 20.75ZM18 15.75C17.59 15.75 17.25 16.09 17.25 16.5V18.5C17.25 18.79 17.42 19.06 17.68 19.17C17.81 19.23 17.9 19.25 18 19.25H20C20.41 19.25 20.75 18.91 20.75 18.5V16.5C20.75 16.09 20.41 15.75 20 15.75H18Z" />
<path d="M13.5 10.75H10.5C9.26 10.75 8.25 9.74 8.25 8.5V5.5C8.25 4.26 9.26 3.25 10.5 3.25H13.5C14.74 3.25 15.75 4.26 15.75 5.5V8.5C15.75 9.74 14.74 10.75 13.5 10.75ZM10.5 4.75C10.09 4.75 9.75 5.09 9.75 5.5V8.5C9.75 8.91 10.09 9.25 10.5 9.25H13.5C13.91 9.25 14.25 8.91 14.25 8.5V5.5C14.25 5.09 13.91 4.75 13.5 4.75H10.5Z" />
<path d="M18.9698 15.7498C18.9398 15.7498 18.9098 15.7498 18.8798 15.7498C18.4698 15.6998 18.1698 15.3298 18.2198 14.9198C18.2398 14.7798 18.2398 14.6498 18.2398 14.5098C18.2398 11.9098 16.8298 9.50973 14.6498 8.40973C14.2798 8.21973 14.1298 7.76978 14.3198 7.39978C14.5098 7.02978 14.9598 6.87977 15.3298 7.06977C18.0098 8.42977 19.7398 11.3498 19.7398 14.5098C19.7398 14.7098 19.7298 14.8997 19.6998 15.0997C19.6698 15.4697 19.3498 15.7498 18.9698 15.7498Z" />
<path d="M5.03 15.75C4.65 15.75 4.33 15.47 4.29 15.09C4.27 14.89 4.25 14.7 4.25 14.5C4.25 11.34 5.98 8.42 8.66 7.06C9.03 6.87 9.48 7.02002 9.67 7.39002C9.86 7.76002 9.71 8.21003 9.34 8.40003C7.16 9.50003 5.75 11.9 5.75 14.5C5.75 14.64 5.76 14.77 5.77 14.91C5.82 15.32 5.52 15.69 5.11 15.74C5.09 15.75 5.06 15.75 5.03 15.75Z" />
</svg>

<?xml version="1.0" encoding="UTF-8"?>
<svg width="24" height="24" viewBox="0 0 24 24" xmlns="http://www.w3.org/2000/svg">
 <path d="m3 9.75c-1.52 0-2.75-1.23-2.75-2.75s1.23-2.75 2.75-2.75 2.75 1.23 2.75 2.75-1.23 2.75-2.75 2.75zm0-4c-0.69 0-1.25 0.56-1.25 1.25s0.56 1.25 1.25 1.25 1.25-0.56 1.25-1.25-0.56-1.25-1.25-1.25z"/>
 <path d="m21 9.75c-1.52 0-2.75-1.23-2.75-2.75s1.23-2.75 2.75-2.75 2.75 1.23 2.75 2.75-1.23 2.75-2.75 2.75zm0-4c-0.69 0-1.25 0.56-1.25 1.25s0.56 1.25 1.25 1.25 1.25-0.56 1.25-1.25-0.56-1.25-1.25-1.25z"/>
 <path d="m19 7.75h-4c-0.41 0-0.75-0.34-0.75-0.75s0.34-0.75 0.75-0.75h4c0.41 0 0.75 0.34 0.75 0.75s-0.34 0.75-0.75 0.75z"/>
 <path d="m9 7.75h-4c-0.41 0-0.75-0.34-0.75-0.75s0.34-0.75 0.75-0.75h4c0.41 0 0.75 0.34 0.75 0.75s-0.34 0.75-0.75 0.75z"/>
 <path d="m6 20.75h-2c-1.24 0-2.25-1.01-2.25-2.25v-2c0-1.24 1.01-2.25 2.25-2.25h2c1.24 0 2.25 1.01 2.25 2.25v2c0 0.9-0.53 1.7-1.35 2.05-0.27 0.13-0.58 0.2-0.9 0.2zm-2-5c-0.41 0-0.75 0.34-0.75 0.75v2c0 0.41 0.34 0.75 0.75 0.75h2c0.1 0 0.19-0.0199 0.29-0.0699 0.29-0.12 0.46-0.3901 0.46-0.6801v-2c0-0.41-0.34-0.75-0.75-0.75h-2z"/>
 <path d="m20 20.75h-2c-0.32 0-0.63-0.07-0.93-0.21-0.79-0.33-1.32-1.14-1.32-2.04v-2c0-1.24 1.01-2.25 2.25-2.25h2c1.24 0 2.25 1.01 2.25 2.25v2c0 1.24-1.01 2.25-2.25 2.25zm-2-5c-0.41 0-0.75 0.34-0.75 0.75v2c0 0.29 0.17 0.56 0.43 0.67 0.13 0.06 0.22 0.08 0.32 0.08h2c0.41 0 0.75-0.34 0.75-0.75v-2c0-0.41-0.34-0.75-0.75-0.75h-2z"/>
 <path d="m13.5 10.75h-3c-1.24 0-2.25-1.01-2.25-2.25v-3c0-1.24 1.01-2.25 2.25-2.25h3c1.24 0 2.25 1.01 2.25 2.25v3c0 1.24-1.01 2.25-2.25 2.25zm-3-6c-0.41 0-0.75 0.34-0.75 0.75v3c0 0.41 0.34 0.75 0.75 0.75h3c0.41 0 0.75-0.34 0.75-0.75v-3c0-0.41-0.34-0.75-0.75-0.75h-3z"/>
 <path d="m18.97 15.75h-0.09c-0.41-0.05-0.71-0.42-0.66-0.83 0.02-0.14 0.02-0.27 0.02-0.41 0-2.6-1.41-5.0001-3.59-6.1001-0.37-0.19-0.52-0.63995-0.33-1.01s0.64-0.52001 1.01-0.33001c2.68 1.36 4.41 4.28 4.41 7.44 0 0.2-0.01 0.3899-0.04 0.5899-0.03 0.37-0.35 0.6501-0.73 0.6501z"/>
 <path d="m5.03 15.75c-0.38 0-0.7-0.28-0.74-0.66-0.02-0.2-0.04-0.39-0.04-0.59 0-3.16 1.73-6.08 4.41-7.44 0.37-0.19 0.82-0.03998 1.01 0.33002s0.04 0.82001-0.33 1.01c-2.18 1.1-3.59 3.5-3.59 6.1 0 0.14 0.01 0.27 0.02 0.41 0.05 0.41-0.25 0.78-0.66 0.83-0.02 0.01-0.05 0.01-0.08 0.01z"/>
</svg>
